assets/Breast feeding/Dark/Flat/breast_feeding_flat_dark.svg

<svg width="32" height="32" viewBox="0 0 32 32" fill="none" xmlns="http://www.w3.org/2000/svg">
<path d="M24.5662 9.73888C24.6573 10.2898 24.6269 10.8308 24.4851 11.3316C24.4345 11.5019 24.4648 11.6822 24.5763 11.8225C24.8802 12.2332 25.0929 12.7241 25.1942 13.265C25.5386 15.1683 24.2521 16.9915 22.3274 17.322L13.0381 18.9448C11.1133 19.2854 9.26964 18.0132 8.93535 16.1099C8.83405 15.569 8.87457 15.028 9.01639 14.5372C9.06704 14.3669 9.03665 14.1866 8.93535 14.0463C8.62131 13.6156 8.40858 13.1247 8.30728 12.5738C8.17559 11.8525 8.27689 11.1413 8.5504 10.5202C8.82392 9.89915 8.90496 9.18792 8.7834 8.51676C8.42884 6.56337 9.74576 4.71016 11.7211 4.35955C11.9136 4.32949 12.0858 4.20929 12.1669 4.02897C12.6531 3.02724 13.6155 2.2559 14.821 2.05555C16.0163 1.84519 17.1712 2.24588 17.9816 3.02724C18.1234 3.16748 18.326 3.21757 18.5185 3.18751C20.4837 2.84692 22.3679 4.14918 22.7123 6.09255C22.8339 6.76372 23.1479 7.39481 23.624 7.89568C24.1002 8.38653 24.4345 9.01762 24.5662 9.73888Z" fill="black"/>
<path d="M26.99 28.215C26.99 29.195 26.2 29.995 25.22 29.995H6.84998L6.99446 26.3635L4.68005 25.645L8.98104 20.3852C10.4134 18.51 12.5177 17.1551 14.9425 16.6606L20.2897 20.0327L26.8862 24.8815C26.948 25.3208 26.98 25.7693 26.98 26.225L26.99 28.215Z" fill="#8B62BF"/>
<path d="M16.99 16.4551C16.27 16.4551 15.57 16.5351 14.9 16.6751V19.0951C14.9 22.5751 17.83 25.3451 21.31 25.1551L26.89 24.8451C26.19 20.1051 22.03 16.4551 16.99 16.4551Z" fill="#452829"/>
<path d="M22.9829 9.72708C23.1491 10.6792 22.5121 11.5858 21.56 11.752C20.6079 11.9183 19.7013 11.2813 19.535 10.3292C19.3688 9.37708 20.0058 8.47047 20.9579 8.30421C21.91 8.13795 22.8166 8.77499 22.9829 9.72708Z" fill="#4E3233"/>
<path d="M13.7489 11.4995C13.9151 12.4516 13.2781 13.3582 12.326 13.5245C11.3739 13.6908 10.4673 13.0537 10.301 12.1016C10.1348 11.1495 10.7718 10.2429 11.7239 10.0767C12.676 9.91041 13.5826 10.5474 13.7489 11.4995Z" fill="#4E3233"/>
<path d="M20.0905 7.03116L16.7815 7.61865C15.4676 7.85364 14.1343 7.42282 13.2 6.46326C13.054 6.30659 12.7913 6.38493 12.7426 6.60034L12.6939 6.81575C12.5674 7.43261 12.1976 7.96135 11.6915 8.30405C11.6623 8.33342 11.6234 8.35301 11.5942 8.37259C11.3703 8.53904 10.874 9.01882 11.0297 10.0078L11.7499 13.2977C12.3825 16.2057 14.981 17.7822 17.7061 17.2926C20.4409 16.8128 22.3387 14.4433 21.9494 11.4863L21.5309 8.31384C21.2681 6.92346 20.2851 7.00179 20.0905 7.03116Z" fill="#573739"/>
<path d="M17.2849 14.6612C16.7359 14.7619 16.1961 14.7161 15.7203 14.5604C15.5556 14.5054 15.4275 14.707 15.5465 14.8352C16.0131 15.339 16.7085 15.5955 17.4313 15.4673C18.1542 15.339 18.7215 14.8535 18.9868 14.2306C19.0509 14.0749 18.8679 13.9283 18.7306 14.0382C18.328 14.3405 17.8339 14.5604 17.2849 14.6612Z" fill="#290118"/>
<path d="M16.2428 11.3504L16.0052 13.1351C15.9535 13.5016 16.2944 13.8007 16.687 13.7428L17.5133 13.6077C17.9059 13.5402 18.1125 13.1447 17.9369 12.8167L17.0588 11.225C16.8626 10.8681 16.2944 10.9549 16.2428 11.3504Z" fill="#3D2123"/>
<path d="M19.83 8.53586C19.88 8.55586 19.93 8.55586 19.98 8.54586C20.08 8.52586 20.16 8.45586 20.2 8.36586C20.26 8.21586 20.18 8.04586 20.03 7.99586C20.0278 7.9953 20.0225 7.99363 20.0142 7.99106C19.8755 7.94777 18.9122 7.64719 17.94 8.00586C17.79 8.05586 17.71 8.22586 17.77 8.37586C17.82 8.52586 17.99 8.60586 18.14 8.54586C18.9132 8.25709 19.7037 8.49762 19.8164 8.53193C19.8247 8.53445 19.83 8.53586 19.83 8.53586Z" fill="black"/>
<path d="M12.3173 9.77538C12.3773 9.85538 12.4873 9.89538 12.5873 9.87538C12.6373 9.86538 12.6873 9.84538 12.7373 9.80538C12.7373 9.80538 12.7454 9.80015 12.7585 9.79068C12.8814 9.70136 13.5226 9.23538 14.3273 9.23538C14.4873 9.23538 14.6173 9.10538 14.6173 8.94538C14.6173 8.78538 14.4873 8.65538 14.3273 8.65538C13.271 8.64578 12.4637 9.2816 12.3658 9.35875C12.3617 9.36195 12.3573 9.36538 12.3573 9.36538C12.2273 9.46538 12.2173 9.65538 12.3173 9.77538Z" fill="black"/>
<path d="M23.25 27C25.5972 27 27.5 25.0972 27.5 22.75C27.5 20.4028 25.5972 18.5 23.25 18.5C20.9028 18.5 19 20.4028 19 22.75C19 25.0972 20.9028 27 23.25 27Z" fill="#00F397"/>
<path d="M22.137 18.6504C20.767 19.9675 20.427 22.0205 21.427 23.7307C22.437 25.4409 24.467 26.1977 26.307 25.6965C26.2801 25.7218 26.2528 25.7478 26.225 25.7742C25.9943 25.9936 25.7326 26.2425 25.447 26.4004C24.371 27.0105 23.1272 27.093 22.0166 26.742C21.819 27.9447 21.0892 29.0504 19.9264 29.6994L19.4 30H11.8541C11.8189 29.9457 11.7837 29.8607 11.7486 29.7757C11.7134 29.6907 11.6782 29.6056 11.643 29.5514C10.4668 27.5487 11.1605 24.9737 13.2112 23.8195L15.654 22.4383C16.7171 21.837 17.9384 21.7336 19.0309 22.0572C19.2233 20.8416 19.9498 19.7143 21.097 19.0423C21.427 18.8457 21.777 18.7487 22.137 18.6504Z" fill="#00D26A"/>
<path d="M24.6699 24.3555C24.7699 24.8255 24.9399 25.2855 25.1699 25.7155C25.2699 25.9055 25.3399 26.1155 25.3999 26.3455C25.5999 27.4755 24.8399 28.5655 23.7099 28.7755C23.2299 28.8655 22.7499 28.7755 22.3399 28.5555C22.3299 28.5555 22.3199 28.5555 22.3099 28.5455C22.0699 28.3955 20.0999 27.2955 18.8999 26.6255C18.6299 26.4755 18.5299 26.1255 18.6799 25.8555C18.8299 25.5855 19.1799 25.4855 19.4499 25.6355C19.4499 25.6355 19.7299 25.7955 20.1299 26.0155C20.1699 26.0355 20.2099 25.9755 20.1699 25.9555L18.8799 25.1055C18.6199 24.9255 18.5399 24.5655 18.7199 24.3055C18.8999 24.0555 19.2399 23.9855 19.4999 24.1555L20.6499 24.9655C20.6699 24.9755 20.6899 24.9555 20.6699 24.9355C19.9899 24.3055 19.3199 23.6255 19.2899 23.5855C19.0799 23.3555 19.0999 22.9955 19.3299 22.7855C19.5599 22.5755 19.9199 22.5955 20.1299 22.8255C20.1299 22.8255 20.1337 22.8296 20.1392 22.8356C20.2199 22.9237 20.8135 23.5715 21.5999 24.2455C21.6099 24.2555 21.6299 24.2555 21.6499 24.2455C21.6699 24.2255 21.6699 24.1955 21.6499 24.1755C21.6303 24.1559 21.6096 24.1363 21.5885 24.1163C21.5452 24.0752 21.5003 24.0326 21.4599 23.9855C20.992 23.5093 20.6498 23.0889 20.5382 22.9518C20.5163 22.9248 20.5032 22.9088 20.4999 22.9055C20.2999 22.6655 20.3399 22.3055 20.5899 22.1155C20.8299 21.9155 21.1899 21.9555 21.3799 22.2055C21.6799 22.5855 22.4499 23.4755 23.2199 24.0855C23.2699 24.1255 23.3499 24.0855 23.3399 24.0155C23.2699 23.5255 23.2399 23.1855 23.2399 23.1555C23.2199 22.8155 23.4799 22.5155 23.8199 22.4955C24.1599 22.4755 24.4599 22.7355 24.4799 23.0755C24.4799 23.0855 24.5199 23.6655 24.6699 24.3555Z" fill="#573739"/>
<path d="M16.6253 28.0543H19.0074C19.5533 28.0543 20 28.4919 20 29.0268C20 29.5617 19.5533 29.9993 19.0074 29.9993H14.0447C13.7667 30.009 13.4888 29.9215 13.2903 29.7173C12.9032 29.338 12.9032 28.7253 13.2903 28.3461L15.3945 26.2844C15.7816 25.9052 16.4069 25.9052 16.794 26.2844C17.1811 26.6637 17.1811 27.2764 16.794 27.6556L16.5558 27.889C16.4963 27.9474 16.536 28.0543 16.6253 28.0543Z" fill="#573739"/>
<path d="M12.47 26.0555L6.5 24.9955C5 24.7555 4 26.1155 4 27.4955C4 28.8755 5.12 29.9955 6.5 29.9955H14V27.8755C14 26.9855 13.35 26.2155 12.47 26.0555Z" fill="#A17FD5"/>
<path d="M19.7892 10.3551C19.8392 10.2851 19.8992 10.2351 19.9792 10.2251C20.1992 10.1851 20.3692 10.4251 20.2592 10.6151C20.0192 11.0151 19.6292 11.3051 19.1492 11.3851C18.6692 11.4751 18.1992 11.3351 17.8492 11.0451C17.6692 10.8951 17.7492 10.6151 17.9692 10.5751C18.0492 10.5651 18.1292 10.5851 18.1892 10.6351C18.4192 10.8351 18.7292 10.9251 19.0492 10.8651C19.3692 10.8051 19.6292 10.6151 19.7892 10.3551Z" fill="black"/>
<path d="M14.76 11.1648C14.81 11.0948 14.87 11.0448 14.95 11.0348C15.17 11.0048 15.34 11.2448 15.23 11.4348C14.99 11.8348 14.6 12.1248 14.12 12.2048C13.64 12.2948 13.17 12.1548 12.82 11.8648C12.64 11.7148 12.72 11.4348 12.94 11.3948C13.02 11.3748 13.1 11.4048 13.16 11.4548C13.4 11.6448 13.71 11.7348 14.02 11.6748C14.34 11.6148 14.6 11.4248 14.76 11.1648Z" fill="black"/>
</svg>

<svg xmlns="http://www.w3.org/2000/svg" width="32" height="32" fill="none"><path fill="#000" d="M24.566 9.739c.091.55.06 1.092-.08 1.593-.052.17-.021.35.09.49a3.5 3.5 0 0 1 .618 1.443c.345 1.903-.942 3.726-2.867 4.057l-9.289 1.623c-1.925.34-3.768-.932-4.103-2.835a3.414 3.414 0 0 1 .081-1.573c.051-.17.02-.35-.08-.49a3.563 3.563 0 0 1-.386-3.527 3.48 3.48 0 0 0 .233-2.003c-.354-1.954.963-3.807 2.938-4.157a.584.584 0 0 0 .446-.331 3.6 3.6 0 0 1 2.654-1.973c1.195-.21 2.35.19 3.16.971.142.14.345.19.537.16 1.966-.34 3.85.962 4.194 2.906.122.67.436 1.302.912 1.803.476.49.81 1.122.942 1.843Z"/><path fill="#8B62BF" d="M26.99 28.215c0 .98-.79 1.78-1.77 1.78H6.85l.144-3.632-2.314-.718 4.301-5.26a10.024 10.024 0 0 1 5.962-3.724l5.347 3.372 6.596 4.848c.062.44.094.888.094 1.344l.01 1.99Z"/><path fill="#452829" d="M16.99 16.455c-.72 0-1.42.08-2.09.22v2.42c0 3.48 2.93 6.25 6.41 6.06l5.58-.31c-.7-4.74-4.86-8.39-9.9-8.39Z"/><path fill="#4E3233" d="M22.983 9.727a1.75 1.75 0 1 1-3.448.602 1.75 1.75 0 0 1 3.448-.602ZM13.749 11.5a1.75 1.75 0 1 1-3.448.601 1.75 1.75 0 0 1 3.448-.602Z"/><path fill="#573739" d="m20.09 7.031-3.308.588A4.001 4.001 0 0 1 13.2 6.463c-.146-.156-.409-.078-.457.137l-.05.216a2.381 2.381 0 0 1-1.002 1.488c-.029.03-.068.049-.097.069-.224.166-.72.646-.564 1.635l.72 3.29c.633 2.908 3.231 4.484 5.956 3.995 2.735-.48 4.633-2.85 4.243-5.807l-.418-3.172c-.263-1.39-1.246-1.312-1.44-1.283Z"/><path fill="#290118" d="M17.285 14.661c-.55.1-1.089.055-1.565-.1-.164-.056-.293.146-.174.274a2.084 2.084 0 0 0 3.44-.605c.065-.155-.118-.302-.255-.192a3.443 3.443 0 0 1-1.446.623Z"/><path fill="#3D2123" d="m16.243 11.35-.238 1.785c-.051.367.29.666.682.608l.826-.135c.393-.068.6-.463.424-.791l-.878-1.592c-.196-.357-.765-.27-.816.125Z"/><path fill="#000" d="M19.83 8.536c.05.02.1.02.15.01.1-.02.18-.09.22-.18a.281.281 0 0 0-.17-.37l-.016-.005c-.139-.043-1.102-.344-2.074.015-.15.05-.23.22-.17.37.05.15.22.23.37.17.773-.289 1.564-.048 1.676-.014a.451.451 0 0 0 .014.004ZM12.317 9.775c.06.08.17.12.27.1.05-.01.1-.03.15-.07l.021-.014c.123-.09.765-.556 1.57-.556a.29.29 0 0 0 0-.58c-1.057-.01-1.864.627-1.962.704l-.009.006c-.13.1-.14.29-.04.41Z"/><path fill="#00F397" d="M23.25 27a4.25 4.25 0 1 0 0-8.5 4.25 4.25 0 0 0 0 8.5Z"/><path fill="#00D26A" d="M22.137 18.65c-1.37 1.318-1.71 3.37-.71 5.08 1.01 1.71 3.04 2.468 4.88 1.966l-.082.078c-.23.22-.492.468-.778.626a4.307 4.307 0 0 1-3.43.342 4.152 4.152 0 0 1-2.09 2.957L19.4 30h-7.546a1.548 1.548 0 0 1-.105-.224c-.036-.085-.07-.17-.106-.225a4.154 4.154 0 0 1 1.568-5.731l2.443-1.382a4.345 4.345 0 0 1 3.377-.38 4.27 4.27 0 0 1 2.066-3.016c.33-.196.68-.293 1.04-.392Z"/><path fill="#573739" d="M24.67 24.355c.1.47.27.93.5 1.36.1.19.17.4.23.63.2 1.13-.56 2.22-1.69 2.43-.48.09-.96 0-1.37-.22-.01 0-.02 0-.03-.01-.24-.15-2.21-1.25-3.41-1.92a.571.571 0 0 1-.22-.77c.15-.27.5-.37.77-.22 0 0 .28.16.68.38.04.02.08-.04.04-.06l-1.29-.85a.58.58 0 0 1-.16-.8c.18-.25.52-.32.78-.15l1.15.81c.02.01.04-.01.02-.03-.68-.63-1.35-1.31-1.38-1.35a.568.568 0 0 1 .04-.8.568.568 0 0 1 .81.05c.08.089.674.736 1.46 1.41.01.01.03.01.05 0 .02-.02.02-.05 0-.07l-.061-.059c-.044-.04-.089-.083-.13-.13-.467-.477-.81-.897-.92-1.034a1.335 1.335 0 0 0-.04-.047.55.55 0 0 1 .09-.79c.24-.2.6-.16.79.09.3.38 1.07 1.27 1.84 1.88.05.04.13 0 .12-.07-.07-.49-.1-.83-.1-.86-.02-.34.24-.64.58-.66.34-.02.64.24.66.58 0 .01.04.59.19 1.28ZM16.625 28.054h2.382c.546 0 .993.438.993.973a.986.986 0 0 1-.993.972h-4.962a.99.99 0 0 1-.755-.282.955.955 0 0 1 0-1.37l2.105-2.063a1.003 1.003 0 0 1 1.399 0 .955.955 0 0 1 0 1.372l-.238.233a.097.097 0 0 0 .07.165Z"/><path fill="#A17FD5" d="m12.47 26.055-5.97-1.06c-1.5-.24-2.5 1.12-2.5 2.5a2.5 2.5 0 0 0 2.5 2.5H14v-2.12c0-.89-.65-1.66-1.53-1.82Z"/><path fill="#000" d="M19.79 10.355c.05-.07.11-.12.19-.13.22-.04.39.2.28.39-.24.4-.63.69-1.11.77-.48.09-.95-.05-1.3-.34-.18-.15-.1-.43.12-.47.08-.01.16.01.22.06.23.2.54.29.86.23.32-.06.58-.25.74-.51ZM14.76 11.165c.05-.07.11-.12.19-.13.22-.03.39.21.28.4-.24.4-.63.69-1.11.77-.48.09-.95-.05-1.3-.34-.18-.15-.1-.43.12-.47.08-.02.16.01.22.06.24.19.55.28.86.22.32-.06.58-.25.74-.51Z"/></svg>
